X:1
T:Title
%%score 1 { ( 2 4 5 ) | ( 3 6 ) }
L:1/8
M:4/4
K:Ab
V:1 treble nm="Akkordion"
V:2 bass nm="Grand Piano"
V:4 bass 
V:5 bass 
V:3 bass 
V:6 bass 
V:1
 z4 z2[Q:1/4=100] E2 | c3 c cdFG | A4 E2 A2 | B3 B BAdc | B6 E2 | c3 c cc_c=c | e4 d2 B2 | %7
 A3 A AG c>B | A6 z2 | z8 | z8 | z8 | z8 | z8 | z8 | z8 |[M:7/8] z7 |] %17
V:2
 z8 | z EEE z DDD | z EEE z E z E | z[K:treble] DDD B,EDC | B,6 z2 | z EEE z E=DE | %6
 z[K:treble] _GGG[K:bass] z[K:treble] FFF | z EEE CB, z z/[K:treble] D/ | C6 [CA]2 | F3 F F2 F2 | %10
 [DF]3 [CE] [CE]4 | G2 G>G A2 z2 | B2 B>B c2 z2 | cBcd e3 c | A2 c2 B4 | %15
 [Ec][DB][CA][DF] .[CE]2 [A,A]-[A,EA] |[M:7/8] c3 B [CA]3 |] %17
V:3
 z8 | z [A,C][A,C][A,C] z [G,B,][G,B,][G,B,] | z [A,C][A,C][A,C] z [A,C] z [A,C] | %3
 z [G,B,][G,B,][G,B,] [D,G,][C,A,][B,,G,][A,,A,] | [E,G,]6 z2 | %5
 z [A,C][A,C][A,C] z [A,C][A,_C][K:treble][A,=C] | z [CE][CE][CE] z [B,D][B,D][B,D] | %7
 z[K:bass] [A,C][A,C][A,C] A,G, C>B, | [A,,E,A,]6 [A,,A,]2 | [D,A,D]3 [D,A,D] [D,A,D]2 [D,A,D]2 | %10
 [A,,A,]3 [A,,A,] [A,,A,]4 | [E,B,D]2 [E,B,D]>[E,B,D] [A,C]2 z2 | %12
 [E,G,E]2 [E,G,E]>[E,G,E] [A,E]2 z2 | [A,A][G,G][A,A][B,B] [Cc]3 [A,A] | [F,F]2 [A,A]2 [G,G]4 | %15
 [A,,A,]2 [A,,A,][A,,A,] .[A,,A,]2 A,,C, |[M:7/8] [E,A,E]3 [E,G,D] [A,,A,]3 |] %17
V:4
 x8 | A,,2 z2 E,2 z2 | A,,2 z2 A,,2 C,2 | E,2[K:treble] z2 z4 | x8 | A,,2 z2 A,,2 z2 | %6
 C,4[K:treble][K:bass] D,4[K:treble] | E,4 z2 E2[K:treble] | x8 | x8 | x8 | x8 | x8 | x8 | x8 | %15
 z4 z2 .C2 |[M:7/8] x7 |] %17
V:5
 x8 | x8 | x8 | x[K:treble] x7 | x8 | x8 | x[K:treble] x3[K:bass] x[K:treble] x3 | %7
 z4 z2 z E,[K:treble] | x8 | x8 | x8 | x8 | x8 | x8 | x8 | x8 |[M:7/8] x7 |] %17
V:6
 x8 | x8 | x8 | x8 | x8 | x7[K:treble] x | x8 | z4[K:bass] E,4 | x8 | x8 | x8 | x8 | x8 | x8 | x8 | %15
 x8 |[M:7/8] x7 |] %17

